img/svg/editors/trophy.svg

<svg width="24" height="25" viewBox="0 0 24 25" fill="none" xmlns="http://www.w3.org/2000/svg">
<g clip-path="url(#clip0_13856_115211)">
<path d="M4.82715 2.00586C4.83244 2.39697 4.84225 2.77771 4.85645 3.14844L4.91211 4.23145C5.1091 7.30386 5.60517 9.6235 6.24219 11.3525C7.56783 14.9488 9.46801 15.9287 10.5 15.9287C10.585 15.9288 10.6664 15.9625 10.7266 16.0225C10.7868 16.0827 10.8213 16.1648 10.8213 16.25V20.165C10.8213 20.4038 10.7416 20.636 10.5947 20.8242C10.4478 21.0125 10.2415 21.1461 10.0098 21.2041L7.87109 21.7383C7.75668 21.7668 7.64743 21.8123 7.54688 21.873L7.44922 21.9385L6.49219 22.6572L5.46484 23.4287H18.5342L17.5068 22.6572L16.5498 21.9385H16.5488C16.4226 21.8443 16.2789 21.776 16.126 21.7383H16.127L13.9893 21.2041C13.7577 21.1461 13.5522 21.0124 13.4053 20.8242C13.2583 20.6359 13.1778 20.4039 13.1777 20.165V16.25C13.1777 16.1648 13.2122 16.0827 13.2725 16.0225C13.3327 15.9623 13.4148 15.9287 13.5 15.9287C14.5321 15.9285 16.4314 14.9483 17.7568 11.3525C18.3939 9.62487 18.8899 7.30226 19.0869 4.23145C19.1324 3.5292 19.1613 2.78816 19.1719 2.00586L19.1777 1.57129H4.82129L4.82715 2.00586ZM3.82129 4.63867C2.92689 4.80232 2.13398 5.31441 1.61719 6.0625C1.10048 6.81065 0.901892 7.73353 1.06543 8.62793C1.2291 9.52246 1.741 10.3162 2.48926 10.833C3.23752 11.3498 4.16114 11.5475 5.05566 11.3838L5.5332 11.2969L5.38672 10.833C4.89869 9.29417 4.52108 7.38239 4.3252 5.02441L4.28613 4.55371L3.82129 4.63867ZM19.6758 5.02441C19.4784 7.38376 19.1009 9.29398 18.6143 10.833L18.4678 11.2969L18.9453 11.3838C19.8396 11.5474 20.7626 11.3496 21.5107 10.833C22.259 10.3162 22.7719 9.52246 22.9355 8.62793C23.0991 7.73355 22.9005 6.81063 22.3838 6.0625C21.867 5.31434 21.0741 4.80233 20.1797 4.63867L19.7148 4.55371L19.6758 5.02441ZM10.1777 16.5693L9.85156 16.4893C8.59642 16.1817 7.04841 14.9461 5.89453 12.2207L5.75586 11.8926L5.4082 11.9688C4.877 12.0859 4.32692 12.0958 3.79199 11.9971C3.25719 11.8983 2.74728 11.6935 2.29297 11.3945C1.8386 11.0955 1.4488 10.708 1.14648 10.2559C0.844267 9.8038 0.635872 9.29572 0.533203 8.76172C0.430538 8.22753 0.435644 7.67756 0.548828 7.14551C0.662028 6.6136 0.881258 6.1101 1.19238 5.66406C1.50359 5.21792 1.9011 4.83782 2.36133 4.54785C2.82128 4.25815 3.3347 4.06373 3.87109 3.97559L4.24805 3.91406L4.23047 3.5332C4.19546 2.77284 4.17742 2.01117 4.17773 1.25C4.17773 1.16475 4.21218 1.08274 4.27246 1.02246C4.33272 0.962309 4.41485 0.928711 4.5 0.928711H19.5C19.585 0.928819 19.6664 0.962454 19.7266 1.02246C19.7868 1.08274 19.8213 1.16475 19.8213 1.25C19.8213 2.05047 19.8032 2.81186 19.7705 3.53418L19.7529 3.91504L20.1289 3.97656C20.6651 4.06538 21.1782 4.26059 21.6377 4.55078C22.0973 4.84102 22.4941 5.22096 22.8047 5.66699C23.1152 6.11297 23.3335 6.61683 23.4463 7.14844C23.5591 7.68007 23.5646 8.22901 23.4619 8.7627C23.3593 9.29634 23.1506 9.80404 22.8486 10.2559C22.5466 10.7076 22.1569 11.0946 21.7031 11.3936C21.2492 11.6925 20.7395 11.898 20.2051 11.9971C19.6707 12.0961 19.1217 12.0872 18.5908 11.9707L18.2432 11.8945L18.1045 12.2217C16.9506 14.9457 15.4027 16.1817 14.1475 16.4893L13.8213 16.5693V20.5L14.1455 20.5811L16.2832 21.1152H16.2842C16.5191 21.1734 16.7413 21.2792 16.9355 21.4248V21.4238L19.6924 23.4932C19.7463 23.5336 19.7865 23.5899 19.8066 23.6543C19.8267 23.7186 19.826 23.7877 19.8047 23.8516C19.7834 23.9156 19.7422 23.9713 19.6875 24.0107C19.6329 24.0501 19.5673 24.0712 19.5 24.0713H4.5C4.43254 24.0713 4.36625 24.0502 4.31152 24.0107C4.25684 23.9713 4.21566 23.9155 4.19434 23.8516C4.17308 23.7877 4.17236 23.7186 4.19238 23.6543C4.21247 23.59 4.25278 23.5336 4.30664 23.4932L7.0625 21.4238L7.06348 21.4248C7.25763 21.2792 7.47995 21.1734 7.71484 21.1152H7.71582L9.85352 20.5811L10.1777 20.5V16.5693Z" stroke="#FBFBFB" stroke-width="0.857143"/>
</g>
<defs>
<clipPath id="clip0_13856_115211">
<rect width="24" height="24" fill="white" transform="translate(0 0.5)"/>
</clipPath>
</defs>
</svg>

<svg width="24" height="25" fill="none" xmlns="http://www.w3.org/2000/svg"><g clip-path="url(#clip0_13856_115211)"><path d="M4.827 2.006c.005.391.015.772.03 1.142l.055 1.083c.197 3.073.693 5.393 1.33 7.121C7.568 14.95 9.468 15.93 10.5 15.93a.321.321 0 01.321.321v3.915a1.072 1.072 0 01-.811 1.04l-2.139.533a1.179 1.179 0 00-.324.135l-.098.066-.957.718-1.027.772h13.07l-1.028-.772-.957-.718h-.001a1.179 1.179 0 00-.423-.2h.001l-2.138-.535a1.07 1.07 0 01-.811-1.039V16.25a.322.322 0 01.322-.321c1.032 0 2.931-.98 4.257-4.577.637-1.727 1.133-4.05 1.33-7.12a43.57 43.57 0 00.085-2.226l.006-.435H4.82l.006.435zM3.821 4.639a3.429 3.429 0 101.235 6.745l.477-.087-.146-.464c-.488-1.539-.866-3.45-1.062-5.809l-.039-.47-.465.085zm15.855.385c-.198 2.36-.575 4.27-1.062 5.809l-.146.464.477.087a3.429 3.429 0 101.235-6.745l-.465-.085-.04.47zM10.178 16.57l-.326-.08c-1.256-.307-2.804-1.543-3.957-4.268l-.14-.328-.347.076a4.076 4.076 0 01-3.115-.574 4.074 4.074 0 01.068-6.847c.46-.29.974-.484 1.51-.572l.377-.062-.018-.38a49.218 49.218 0 01-.052-2.284A.323.323 0 014.5.929h15a.321.321 0 01.321.321c0 .8-.018 1.562-.05 2.284l-.018.381.376.062a4.072 4.072 0 11-1.538 7.994l-.348-.076-.138.327c-1.154 2.724-2.702 3.96-3.957 4.267l-.327.08V20.5l.325.081 2.137.534h.001c.235.058.457.164.652.31v-.001l2.756 2.07a.321.321 0 01-.192.577h-15a.323.323 0 01-.308-.417c.02-.064.06-.12.115-.16l2.755-2.07h.001c.195-.145.417-.25.652-.309h0l2.139-.534.324-.081v-3.93z" stroke="#FBFBFB" stroke-width=".857"/></g><defs><clipPath id="clip0_13856_115211"><path fill="#fff" transform="translate(0 .5)" d="M0 0h24v24H0z"/></clipPath></defs></svg>
